X: 04061
T: MICHAEL'S HORNPIPE
C: Bob McQuillen 22 Jan 79
B: Bob's Note Book 04 #61
R: hornpipe, reel
Z: 2020 John Chambers <jc:trillian.mit.edu>
M: C
L: 1/8
K: D
FG \
| AFAd B2A2 | fedB A2EF | G2GA GFE2 | edcB AGFG |
| AFAd B2A2 | fedB A2ef | gagf ecde | f2d2 d2 :|
|: FG \
| A2AG FDFG | Adfe dcBA | e2A2 f2A2 | gagf edcB |
| A2AG FDFG | Adfe dcBA | a2g2 fagf | eddc d2 :|
%%begintext align
%% With fondest best wishes
%% and _sincere_ _thanks_ to
%% Michael McKennen of
%% Applejack.
%%endtext

%%sep 1 1 500

%%sep 1 1 500

